X:1
T:Title
%%score { ( 1 3 ) | ( 2 4 ) }
L:1/8
M:6/8
K:C
V:1 treble nm="Grand Piano"
V:3 treble 
V:2 bass 
V:4 bass 
V:1
 z3 z2[Q:1/4=100] [EG] | [Ec]2 E [DF]2 [FA] | [EG]3- [EG]2 [Ec] | B2 G d2 G | [Ge]3 [Ec]2 [EG] | %5
 [Ec]2 E [DF]2 [FA] | [EG]2 [FB] [Gc]2 [Ge] | [Fd]2 [Af] [Ge]2 [B,Fd] | %8
[M:5/8] [CEc]-[CEc]- [CEc]3 |[M:1/8] G |[M:3/4] G6 | F6 | [DB]4- [DB][Fd] | [Ec]6 | G6 | F6 | e6 | %17
[M:5/8] [Ec]-[Ec]- [Ec]3 |] %18
V:2
 z3 z2 [C,C] | [C,C]2 [C,C] [C,C]2 [C,C] | [C,C]3- [C,C]2 [C,C] | %3
 [G,DF]2 [G,B,F] [G,B,F]2 [G,B,F] | [C,C]3- [C,C]2 [C,C] | [C,C]2 [C,C] [C,C]2 [C,C] | %6
 [C,C]2 [D,G,] [E,G,]2 [C,C] | [F,A,]2 [D,A,] [G,B,]2 G,, |[M:5/8] C,-C,- C,3 |[M:1/8] E | %10
[M:3/4] E6[K:treble] | D6[K:bass] | G,2 G, G,2 G, | [C,G,]2 C, C,2 E | E6[K:treble] | %15
 D6[K:bass][K:treble] | [G,CE]2 [G,C] [G,B,]2 [G,B,F] |[M:5/8][K:bass] [C,C]-[C,C]- [C,C]3 |] %18
V:3
 x6 | x6 | x6 | x6 | x6 | x6 | x6 | x6 |[M:5/8] x5 |[M:1/8] x |[M:3/4] z2 C C2 A | z2 B, B,2 [DB] | %12
 x6 | z2 G, G,2 G | z2 C C2 A | z2 B, B,2 d | z2 G G2 d |[M:5/8] x5 |] %18
V:4
 x6 | x6 | x6 | x6 | x6 | x6 | x6 | x6 |[M:5/8] x5 |[M:1/8] x |[M:3/4] z2 C, C,2[K:treble] F | %11
 z2[K:bass] G,, G,,2 G, | x6 | x6 | z2 C, C,2[K:treble] F | z2[K:bass] G,, G,,2[K:treble] [G,B,F] | %16
 x6 |[M:5/8][K:bass] x5 |] %18

